!!!OTL: Kuoda tiehongjun
!!!ARE: Asia, China,ÿHunan Chaling
!! I, 524
!!!SCT: C2188
!!!YEM: Copyright 1995, estate of Helmut Schaffrath.
**kern
*ICvox
*Ivox
!! Mixed meters:  2/4; 3/4
*M3/4
*k[f#c#g#]
*A:
{8b
4b
8cc#
=1
16b
16cc#
16b
16a
4f#
=2
8b
4b
8cc#
=3
8.ee
16ff#
8ee
8cc#
=4
8b
8ee
8cc#
8b
=5
16a
16b
4.a}
=6
{8b
4b
8cc#
=7
16b
16cc#
16b
16a
4f#
=8
16b
16cc#
16b
16a
8f#
8b
8a
8a
=9
*M2/4
8f#
4f#
8b
=10
8a
8a
16f#
16e
16f#
16a
=11
2e}
=12
{8cc#
8ee
16cc#
16b
8a
=13
8b
8b
16a
16b
16cc#
16ee
=14
16b
16cc#
4.b}
==
!!!AGN: Xiaodiao, Shiyuehua
!!!ONB: ESAC (Essen Associative Code) Database: SENGANSU
!!!AMT: irregular
!!!AIN: vox
!!!EED: Helmut Schaffrath
!!!EEV: 1.0
*-
